!!!COM: Anon.
!!!OTL: O que tens, o/ Juliana
!!!OTL: Romanceiro Folclorico do Brasil
!!!CNT: Brasil
!!!OCY: Brasil
!!!ODT: <1971///
!!!PSR: Irmaos Vitale
!!!PSP: Sao Paulo, Brasil
!!!PDT: 1948///
!!!PPE: Rossini Tavares de Lima
!!!PPG: pages 13-14
!! Romance: Juliana E D. Jorge
!! Place: Bairro de Campos Eliseos, Capital, Sao Paulo, Brasil
**kern
*clefG2
*k[b-e-a-]
*M3/4
*MM96
=1-
4g
4a-
4g
=
4e-
4c
4e-
=
2.g
=
2.c
=
4cc
4dd-
4cc
=
4b-
4g
4en
=
2.cc
=
2.a-
=
4cc
4cc
4cc
=
4cc
4.ee-
8dd
=
2.cc
=
2.g
=
4dd
4bn
4g
=
4f
4e-
4d
=
[2.c
=
4c]
4r
4r
==
*-
